!!!COM: Richard Strauss
!!!CNT: Deutscher
!!!TXO: Deutsche 
!!!OTL: Barkarole
!!!OPS: Opus 17
!!!ONM: No. 6
!!!LYR: A. F. von Schack
!!!ENC: Brian Bice
!!!YOR: Lieder, Complete Edition, vol. 1
!!!ODT: 1887/
!!NB: Vocal melody and text only encoded.
**kern	**silbe
*clefG2	*
*k[b-e-a-d-g-c-]	*
*M9/8	*
=3	=3
{4b-	{Um
8cc-	der
[4.dd-	fal-
8.dd-]	|
16b-	-len-
8dd-	-den
=4	=4
*M6/8	*
4ee-	Ru-
8ff	-der
4b-	Spi-
8dd-}	-tzen}
=5	=5
*M9/8	*
{8ee-	{zit-
8ff-	-tert
8ffn	und
8gg-	leuch-
8ee-	-tet
8b-	ein
[4.g-	schim-
=6	=6
*M6/8	*
8g-]	|
8a-	-mern-
8an	-der
4.b-}	Glanz}
=7	=7
*M9/8	*
{4dd-	{flieht
8cc-	bei
(8b--	je-
8dd-)	|
8gg-	-dem
[4.bb--	Schla-
=8	=8
*M6/8	*
8.bb--]	|
16aa-	-ge
8ee-	mit
4gg-	Bli-
8ff}	-tzen}
=9	=9
*M9/8	*
{(8ee-	{hin
8dd-)	|
8cc	von
[4.ee-	Wel-
8ee-]	|
8a-	-len
8b-	zu
=10	=10
*M6/8	*
8.cc-	Wel-
16f	-len
8e-	in
4.d-}	Tanz.}
=11	=11
*M9/8	*
4r	.
8r	.
{4b-	{Mir
8cc-	im
8.dd-	Bu-
16b-	-sen
8dd-	von
=12	=12
*M6/8	*
4ee-	Lie-
8ff	-bes-
4b-	-won-
8dd-}	-nen}
=13	=13
*M9/8	*
{8ee-	{zit-
8ff-	-tert
8ffn	und
8gg-	leuch-
8ee-	-tet
8b-	das
[4.g-	Herz
=14	=14
*M6/8	*
8g-]	|
8a-	wie
8an	die
4.b-}	Flut,}
=15	=15
*M9/8	*
{[4.ee-	{ju-
8ee-]	|
8dd-	-belt
8cc-	hin-
8b-	-auf
8cc-	zu
8a-	en
=16	=16
*M6/8	*
8.g-	Ster-
16b-	-nen
8ee-	und
4ccn	Son-
8dd-}	-nen,}
=17	=17
*M9/8	*
{4.ddn	{bebt
4ee-	zu
8een	ver-
[4.ff	-gehn
=18	=18
*M6/8	*
4.ff_	|
8ff]	|
8gg-	in
8ggn	der
=19	=19
*M9/8	*
2.gg#	wo-
4ddn	-gen-
8een	-den
=20	=20
*M6/8	*
(4.ddn	Glut.
4cc#	|
8bn)}	|}
=21	=21
*k[f#c#]	*
*M9/8	*
{4.a	{Schon
4b	auf
8a	dem
4ee	Fel-
8a	-sen
=22	=22
4r	.
8a	durch's
8.a	Gru2n
16b	der
8a	Pla-
4gg	-ta-
8cc#}	-ne}
=23	=23
{4.ee	{seh
4dd	ich
8cc#	das
[4.ff#	sa2u-
=24	=24
8ff#]	|
8ee	-len-
8dd	-ge-
8.cc#	-tra-
16dd	-ge-
8b	-ne
4.a}	Dach}
=25	=25
8r	.
{8g#	{und
8f##	das
8.ee	flim-
16dd#	-mer-
8a#	-ude
(4cc#	Licht
[8b	|
=26	=26
8b])	|
8cc-	am
8b-	Al-
(4.ffn	-ta-
4fn)	|
8b-}	-ne}
=27	=27
{4a-	{ku2n-
8gn	-det
4.gn	mir,
8ccn	dass
8dd	die
8ee-	Ge-
=28	=28
(2.ee-	-lieb-
4fn)	-te
8fn	noch
=29	=29
(2.ee-	wach.
4d-)}	|}
8r	.
=30	=30
*k[b-e-a-d-g-c-]	*
*M6/8	*
{4.dd-	{Flie-
4ccn	-ge
8g-	mein
=31	=31
[4.gg-	Kahn
4gg-]	|
8dd-	und
=32	=32
4.dd-	birg'
4ccn	uns
8g-	ver-
=33	=33
4.gg-	-schwie-
4dd-}	-gen.}
8r	.
=34	=34
{[4.gg-	{birg'
4gg-]	|
8gg-	uns,
=35	=35
4.ff	se-
4ff	-li-
8ff	-ge
=36	=36
[4.ee-	Nacht
8ee-]	|
8ff	des
8gg-	Au-
=37	=37
2.dd-}	-gust;}
=38	=38
{([4.dd-	{su2ss
8dd-]	|
8ee-)	|
8ff-	wohl
=39	=39
4.ddn	ist's
4ee-	auf
8ee-	den
=40	=40
[4.ff-	Wel-
8ff-]	|
8ee-	-len
8b-	sich
=41	=41
4.dd-	wie-
8ccn}	-gen,}
{8b-	{a-
8a-	-ber
=42	=42
(4.aa-	su2-
4ee--)	|
8g-	-sser
=43	=43
[4.g-	su2-
8g-]	|
8b-	-sser
8cc-	an
=44	=44
4.ee-	ih-
4.dd-	-rer
=45	=45
2.g-}	Brust,}
=46	=46
{(4.dd-	{su2ss
4ccn)	|
8g-	wohl
=47	=47
4.d-	ist's
8r	.
8dd-	auf
8dd-	den
=48	=48
4.dd-	Wel-
4ccn	-len
8g-	sich
=49	=49
4.gg-	wie-
4.dd-}	-gen,}
=50	=50
8r	.
{8b-	{a-
8b-	-ber
([4.bb-	su2-
=51	=51
4bb-]	|
8g-)	|
[4.dd-	-sser
=52	=52
8dd-]	|
(8b-	an
8cc-)	|
([4.ee-	ih-
=53	=53
4.ee-]	|
4dd-)	|
8b-	-rer
=54	=54
2.g-}	Brust.}
*-	*-
